src/lib/packages/icons/src/assets/filled/octagon-exclamation.svg

<svg width="24" height="24" viewBox="0 0 24 24" fill="none" xmlns="http://www.w3.org/2000/svg">
<path d="M20.561 7.56104L16.4399 3.43994C16.1589 3.15894 15.7769 3.00098 15.3789 3.00098H8.62207C8.22407 3.00098 7.84304 3.15894 7.56104 3.43994L3.43994 7.56104C3.15894 7.84204 3.00098 8.22407 3.00098 8.62207V15.3789C3.00098 15.7769 3.15894 16.1579 3.43994 16.4399L7.56104 20.561C7.84204 20.842 8.22407 21 8.62207 21H15.3789C15.7769 21 16.1579 20.842 16.4399 20.561L20.561 16.4399C20.842 16.1589 21 15.7769 21 15.3789V8.62207C21 8.22407 20.842 7.84204 20.561 7.56104ZM11.25 8C11.25 7.586 11.586 7.25 12 7.25C12.414 7.25 12.75 7.586 12.75 8V12C12.75 12.414 12.414 12.75 12 12.75C11.586 12.75 11.25 12.414 11.25 12V8ZM12.02 16C11.468 16 11.0149 15.552 11.0149 15C11.0149 14.448 11.458 14 12.01 14H12.02C12.573 14 13.02 14.448 13.02 15C13.02 15.552 12.572 16 12.02 16Z" fill="currentColor"/>
</svg>

<svg xmlns="http://www.w3.org/2000/svg" width="24" height="24" fill="none"><path fill="currentColor" d="M20.561 7.561 16.44 3.44A1.5 1.5 0 0 0 15.379 3H8.622c-.398 0-.779.158-1.061.439L3.44 7.56A1.5 1.5 0 0 0 3 8.622v6.757c0 .398.158.779.439 1.06l4.121 4.122A1.5 1.5 0 0 0 8.621 21h6.757c.398 0 .779-.158 1.06-.439l4.122-4.121a1.5 1.5 0 0 0 .44-1.061V8.622a1.5 1.5 0 0 0-.439-1.061ZM11.25 8a.75.75 0 0 1 1.5 0v4a.75.75 0 0 1-1.5 0V8Zm.77 8a1.005 1.005 0 0 1-1.005-1c0-.552.443-1 .995-1h.01a1 1 0 1 1 0 2Z"/></svg>
